!!!OTL-incipit: MIT LUST THAET ICH AUSREITEN
!!!ARE: Europa, Mitteleuropa, Deutschland
!!!SCT: Z0055
!!!TXL: @@DE
!!!YEM: Copyright 1995, estate of Helmut Schaffrath.
**kern	**text
*ICvox	*
*M4/4	*
*met(c)	*
*k[b-]	*
!LO:TX:a:t=Alt-Deutſch.	!
{4g	Mit
=1	=1
8g	Luſt
8g	thät
8g	ich
8g	aus-
4a	-rei-
4a	-ten,
=2	=2
4dd	durch
8dd	ei-
8a	-nen
(8dd	grü-
4cc)	.
8b-/	-nen
=3	=3
2a	Wald,
4r}	.
{4dd	da-
=4	=4
8dd	-rin,
8dd	da
8dd	hört'
8dd	ich
8cc	ſin-
4a	-gen,
8b-	ja
=5	=5
4g	ſin-
(8a	.
8cc	.
4b-/	.
8a	.
8g	.
=6	=6
4a)	-gen,
4g	.
4r}	.
{4dd	drei
=7	=7
4ff	Vö-
8dd	-ge-
8b-	-lein
4cc	wohl
4a	ge-
=8	=8
8g}	-ſtalt,
{8dd	drin
8dd	hört'
8dd	ich
4dd	ſin-
8dd	-gen,
8dd	ja
=9	=9
4g	ſin-
(8a	.
8cc	.
4b-/	.
8a	.
8g	.
=10	=10
4a)	.
4g	-gen,
4r}	.
{4dd	drei
=11	=11
4ff	Vö-
4dd	-ge-
4b-	-lein
8cc	wohl
8a	ge-
=12	=12
2g	-ſtalt.
4r}	.
==	==
!!!AGN: Sagen - Lied, Romanze
!!!ONB: ESAC (Essen Associative Code) Database: ZUCCAL
!!!AMT: simple quadruple
!!!AIN: vox
!!!EED: Helmut Schaffrath
!!!EEV: 1.0
!!!GTL: I. Ernste Romanzen und Sagen.
!!!URL-scan: https://www.digitale-sammlungen.de/de/view/bsb11160571?page=109
!!!ENC: Anna Maria Matuszewska
!!!EEV: 2025/01/24
*-	*-
